X:1
T:Sir Alexander Don
T:Sir Alexander Don
T:Rossini
C:Rossini
L:1/8
Q:1/8=128
M:4/4
K:D
V:1 treble 
V:1
|: A, | D<D D>F E>D E<F | D<D D>F A3 d | D<D D>F E>D E<F | D>B, B,>A, D3 A, | D<D D>F E>D E<F | %6
 D<D D>F A3 d | D<D D>F E>D E<F | D>B, B,>A, D3 B | A<F F>D F>E E<F | A<F F>D F3 B | %11
 A<F F>D E>D E<F | D<B, B,>A, D3 B | A<F F>D F>E E<F | A<F F>D B3 c/d/ | %15
 B/A/G/F/ G/F/E/D/ E>D E<F | D<B, B,>A, D3 :| %17

